src/assets/polygon_logo.svg

<svg fill="none" height="60" viewBox="0 0 60 60" width="60" xmlns="http://www.w3.org/2000/svg"><circle cx="30" cy="30" fill="#8247e5" r="30"/><path clip-rule="evenodd" d="m20.0287 13.2517c.6041-.3356 1.3385-.3356 1.9426 0l9 5c.6349.3527 1.0287 1.022 1.0287 1.7483v3.2517l-4 2.2483v-4.3232l-7-3.8889-7 3.8889v7.6464l7 3.8889 17.0287-9.4604c.6041-.3356 1.3385-.3356 1.9426 0l9 5c.6349.3527 1.0287 1.022 1.0287 1.7483v10c0 .7263-.3938 1.3956-1.0287 1.7483l-9 5c-.6041.3356-1.3385.3356-1.9426 0l-9-5c-.6349-.3527-1.0287-1.022-1.0287-1.7483v-3.2517l4-2.2483v4.3232l7 3.8889 7-3.8889v-7.6464l-7-3.8889-17.0287 9.4604c-.6041.3356-1.3385.3356-1.9426 0l-9-5c-.6349-.3527-1.0287-1.022-1.0287-1.7483v-10c0-.7263.3938-1.3956 1.0287-1.7483z" fill="#fff" fill-rule="evenodd"/></svg>

<svg width="60" height="60" viewBox="0 0 60 60" fill="none" xmlns="http://www.w3.org/2000/svg">
    <circle cx="30" cy="30" r="30" fill="#8247E5"/>
    <path fill-rule="evenodd" clip-rule="evenodd" d="M20.0287 13.2517C20.6328 12.9161 21.3672 12.9161 21.9713 13.2517L30.9713 18.2517C31.6062 18.6044 32 19.2737 32 20V23.2517L28 25.5V21.1768L21 17.2879L14 21.1768V28.8232L21 32.7121L38.0287 23.2517C38.6328 22.9161 39.3672 22.9161 39.9713 23.2517L48.9713 28.2517C49.6062 28.6044 50 29.2737 50 30V40C50 40.7263 49.6062 41.3956 48.9713 41.7483L39.9713 46.7483C39.3672 47.0839 38.6328 47.0839 38.0287 46.7483L29.0287 41.7483C28.3938 41.3956 28 40.7263 28 40V36.7483L32 34.5V38.8232L39 42.7121L46 38.8232V31.1768L39 27.2879L21.9713 36.7483C21.3672 37.0839 20.6328 37.0839 20.0287 36.7483L11.0287 31.7483C10.3938 31.3956 10 30.7263 10 30V20C10 19.2737 10.3938 18.6044 11.0287 18.2517L20.0287 13.2517Z" fill="white"/>
</svg>
